img/good-of-week__background-top-desktop.svg

<svg xmlns="http://www.w3.org/2000/svg" viewBox="0 0 1150 34"><path d="M1121.25 0c-14.37 0-14.37 14-28.75 14s-14.37-14-28.75-14-14.37 14-28.75 14-14.38-14-28.75-14-14.38 14-28.75 14-14.37-14-28.74-14S934.39 14 920 14 905.64 0 891.26 0s-14.37 14-28.75 14-14.37-14-28.75-14S819.39 14 805 14 790.65 0 776.27 0s-14.37 14-28.74 14-14.38-14-28.75-14S704.41 14 690 14 675.66 0 661.29 0s-14.38 14-28.75 14-14.38-14-28.75-14S589.41 14 575 14 560.67 0 546.29 0s-14.37 14-28.75 14S503.17 0 488.8 0s-14.38 14-28.75 14-14.38-14-28.76-14-14.37 14-28.75 14-14.37-14-28.75-14S359.42 14 345 14 330.67 0 316.29 0s-14.38 14-28.75 14-14.38-14-28.75-14S244.41 14 230 14 215.66 0 201.29 0s-14.38 14-28.75 14-14.38-14-28.76-14S129.41 14 115 14 100.65 0 86.27 0 71.9 14 57.52 14 43.14 0 28.76 0 14.38 14 0 14v20h1150V14c-14.37 0-14.37-14-28.75-14z" fill="#fff"/></svg>

<svg xmlns="http://www.w3.org/2000/svg" viewBox="0 0 1150 34"><title>Artboard 1</title><path d="M1121.25,0c-14.37,0-14.37,14-28.75,14s-14.37-14-28.75-14S1049.38,14,1035,14s-14.38-14-28.75-14-14.38,14-28.75,14S963.13,0,948.76,0,934.39,14,920,14,905.64,0,891.26,0s-14.37,14-28.75,14S848.14,0,833.76,0,819.39,14,805,14,790.65,0,776.27,0,761.9,14,747.53,14,733.15,0,718.78,0,704.41,14,690,14,675.66,0,661.29,0s-14.38,14-28.75,14S618.16,0,603.79,0,589.41,14,575,14,560.67,0,546.29,0s-14.37,14-28.75,14S503.17,0,488.8,0s-14.38,14-28.75,14S445.67,0,431.29,0s-14.37,14-28.75,14S388.17,0,373.79,0,359.42,14,345,14,330.67,0,316.29,0s-14.38,14-28.75,14S273.16,0,258.79,0,244.41,14,230,14,215.66,0,201.29,0s-14.38,14-28.75,14S158.16,0,143.78,0,129.41,14,115,14,100.65,0,86.27,0,71.9,14,57.52,14,43.14,0,28.76,0,14.38,14,0,14V34H1150V14C1135.63,14,1135.63,0,1121.25,0Z" style="fill:#fff"/></svg>
